packages/assets/static/images/icons/ear-slash.svg

<svg width="24" height="24" viewBox="0 0 24 24" xmlns="http://www.w3.org/2000/svg">
<path d="M20.055 19.7464C20.1226 19.819 20.1752 19.9044 20.2096 19.9975C20.244 20.0906 20.2595 20.1896 20.2554 20.2887C20.2513 20.3879 20.2275 20.4853 20.1854 20.5752C20.1434 20.6651 20.0839 20.7457 20.0105 20.8125C19.937 20.8792 19.851 20.9307 19.7575 20.964C19.664 20.9973 19.5649 21.0117 19.4658 21.0063C19.3667 21.001 19.2696 20.9761 19.1802 20.9329C19.0908 20.8898 19.0109 20.8294 18.945 20.7551L15.6638 17.1505C15.3272 17.2544 14.9709 17.2778 14.6236 17.2189C14.2763 17.1599 13.9477 17.0203 13.6642 16.8112C13.3808 16.602 13.1503 16.3293 12.9916 16.0148C12.8328 15.7004 12.75 15.353 12.75 15.0008C12.749 14.6848 12.7871 14.3699 12.8634 14.0633L9.00001 9.81265C8.9918 10.0116 8.90491 10.1991 8.75846 10.3339C8.61201 10.4688 8.41798 10.5399 8.21907 10.5317C8.02016 10.5235 7.83265 10.4366 7.6978 10.2902C7.56295 10.1437 7.4918 9.94968 7.50001 9.75077C7.49947 9.2909 7.56967 8.83368 7.70813 8.39515L6.04688 6.56327C5.52083 7.54317 5.24697 8.6386 5.25001 9.75077C5.25001 12.2539 6.04969 13.0245 6.89719 13.842C7.70719 14.6258 8.62501 15.508 8.62501 17.6258C8.62501 18.5209 8.98059 19.3793 9.61352 20.0123C10.2465 20.6452 11.1049 21.0008 12 21.0008C12.96 21.0008 13.7297 20.6108 14.4216 19.7736C14.4835 19.6955 14.5605 19.6305 14.6478 19.5825C14.7352 19.5345 14.8312 19.5044 14.9304 19.4939C15.0295 19.4835 15.1297 19.4929 15.2252 19.5216C15.3207 19.5504 15.4094 19.5978 15.4863 19.6613C15.5632 19.7247 15.6267 19.8028 15.6731 19.8911C15.7194 19.9793 15.7477 20.076 15.7563 20.1753C15.7648 20.2746 15.7535 20.3746 15.723 20.4695C15.6925 20.5644 15.6433 20.6523 15.5784 20.728C14.6072 21.9045 13.4063 22.5008 12 22.5008C10.7075 22.4993 9.46842 21.9852 8.5545 21.0713C7.64059 20.1574 7.12649 18.9182 7.12501 17.6258C7.12501 16.1455 6.59251 15.6317 5.85563 14.922C4.91813 14.0164 3.75001 12.8914 3.75001 9.75077C3.74617 8.21384 4.17537 6.70691 4.98844 5.40265L3.94501 4.25515C3.87738 4.1825 3.82485 4.09716 3.79045 4.00406C3.75605 3.91097 3.74047 3.81197 3.74461 3.71281C3.74875 3.61365 3.77254 3.51629 3.81458 3.42639C3.85663 3.33649 3.9161 3.25583 3.98955 3.18908C4.063 3.12233 4.14896 3.07082 4.24246 3.03754C4.33597 3.00426 4.43514 2.98987 4.53425 2.9952C4.63335 3.00053 4.73041 3.02548 4.81981 3.0686C4.9092 3.11172 4.98914 3.17215 5.05501 3.2464L20.055 19.7464ZM8.53969 3.95421C9.5643 3.34245 10.7328 3.01327 11.9261 3.00019C13.1193 2.98712 14.2947 3.29063 15.3325 3.87978C16.3703 4.46894 17.2333 5.32269 17.8336 6.35403C18.434 7.38537 18.7502 8.55743 18.75 9.75077C18.75 9.94968 18.829 10.1404 18.9697 10.2811C19.1103 10.4218 19.3011 10.5008 19.5 10.5008C19.6989 10.5008 19.8897 10.4218 20.0303 10.2811C20.171 10.1404 20.25 9.94968 20.25 9.75077C20.2502 8.29207 19.8637 6.85939 19.1298 5.59876C18.3959 4.33812 17.3409 3.29462 16.0722 2.5746C14.8036 1.85458 13.3668 1.48379 11.9082 1.50002C10.4496 1.51626 9.02134 1.91894 7.76907 2.66702C7.59838 2.76921 7.47527 2.93503 7.42683 3.12798C7.3784 3.32094 7.4086 3.52524 7.51079 3.69593C7.61298 3.86662 7.77879 3.98972 7.97175 4.03816C8.16471 4.0866 8.369 4.0564 8.53969 3.95421ZM15.03 11.923C15.1175 11.9682 15.2131 11.9957 15.3113 12.0039C15.4094 12.0122 15.5083 12.001 15.6021 11.9711C15.696 11.9411 15.783 11.893 15.8582 11.8294C15.9335 11.7658 15.9955 11.688 16.0406 11.6005C16.3432 11.0309 16.5009 10.3957 16.5 9.75077C16.5002 9.03435 16.3294 8.32822 16.0017 7.69112C15.6741 7.05402 15.199 6.50437 14.6161 6.08787C14.0331 5.67138 13.3592 5.40009 12.6503 5.29656C11.9414 5.19303 11.218 5.26026 10.5403 5.49265C10.3521 5.55717 10.1972 5.69382 10.1097 5.87254C10.0223 6.05125 10.0094 6.25739 10.0739 6.44562C10.1384 6.63384 10.2751 6.78872 10.4538 6.87618C10.6325 6.96365 10.8387 6.97654 11.0269 6.91202C11.4787 6.75709 11.9609 6.71228 12.4335 6.7813C12.9061 6.85032 13.3554 7.03118 13.744 7.30884C14.1327 7.5865 14.4494 7.95294 14.6678 8.37767C14.8863 8.8024 15.0002 9.27315 15 9.75077C14.9999 10.1547 14.8993 10.5522 14.7075 10.9076C14.6623 10.9952 14.6348 11.0908 14.6265 11.1889C14.6183 11.2871 14.6295 11.3859 14.6594 11.4798C14.6893 11.5736 14.7375 11.6606 14.8011 11.7359C14.8647 11.8111 14.9425 11.8731 15.03 11.9183V11.923Z"/>
</svg>

<svg viewBox="0 0 24 24" xmlns="http://www.w3.org/2000/svg" aria-hidden="true" fill="currentColor"><path d="M20.055 19.746a.75.75 0 1 1-1.11 1.01l-3.281-3.605A2.25 2.25 0 0 1 12.75 15q-.001-.476.113-.938L9 9.813a.75.75 0 1 1-1.5-.062c0-.46.07-.917.208-1.356L6.047 6.563a6.7 6.7 0 0 0-.797 3.188c0 2.503.8 3.274 1.647 4.091.81.784 1.728 1.666 1.728 3.784A3.375 3.375 0 0 0 12 21c.96 0 1.73-.39 2.422-1.227a.75.75 0 1 1 1.156.954C14.608 21.903 13.406 22.5 12 22.5a4.88 4.88 0 0 1-4.875-4.875c0-1.48-.532-1.994-1.27-2.704-.937-.906-2.105-2.03-2.105-5.171a8.2 8.2 0 0 1 1.238-4.348L3.945 4.255a.75.75 0 1 1 1.11-1.009zM8.54 3.954a6.75 6.75 0 0 1 10.21 5.797.75.75 0 1 0 1.5 0A8.25 8.25 0 0 0 7.77 2.667a.75.75 0 0 0 .77 1.287m6.49 7.969a.75.75 0 0 0 1.01-.322 3.9 3.9 0 0 0 .46-1.85 4.5 4.5 0 0 0-5.96-4.258.75.75 0 0 0 .487 1.419A3 3 0 0 1 15 9.751c0 .404-.1.801-.293 1.157a.75.75 0 0 0 .323 1.01z"/></svg>
